X:1
T:Title
%%score 1 2
L:1/8
Q:1/4=85
M:2/4
K:F
V:1 treble nm="Grand Piano, Soprano"
V:2 bass nm="Choir Pad, Asturias, 77.76 D"
V:1
 C[CF] [CF][FA] | [DA][DG] [DB]2 | C[CE] [CE][CG] | [CG][CF] [FA]2 | C[CF] [CF][FA] | %5
w: By~William~Lesley~Mason,~1893 * * *|||||
 [DA][DG] [DB]2 | [FA][Fc] [EB][EG] | [EG]2 F2 | [Ac]>[GB] [FA][Ac] | [Ac][GB] [GB]2 | %10
w: |||||
 [GB]>[FA] [EG][GB] | [GB][FA] [FA]2 | C[CF] [CF][FA] | [DA][DG] [DB]2 | [FA][Fc] [EB][EG] | %15
w: |||||
 [EG]2 F2- | F4- | F2 z2 |] %18
w: |||
V:2
 [F,A,][F,A,] [F,A,][F,A,] | [B,,B,][B,,B,] [B,,B,]2 | [C,A,][C,A,] [C,A,][C,A,] | %3
 [F,B,][F,A,] [F,C]2 | [F,A,][F,A,] [F,A,][F,A,] | [B,,B,][B,,B,] [B,,B,]2 | %6
 [C,A,][C,A,] [C,G,][C,B,] | [F,B,]2 [F,A,]2 | [F,C]>[F,C] [F,C][F,C] | [C,C][C,C] [C,C]2 | %10
 [C,C]>[C,C] [C,C][C,C] | [F,C][F,C] [F,C]2 | [F,A,][F,A,] [F,A,][F,A,] | [B,,B,][B,,B,] [B,,B,]2 | %14
 [C,A,][C,A,] [C,G,][C,B,] | [F,B,]2 [F,A,]2- | [F,A,]4- | [F,A,]2 z2 |] %18

